X:1
T:Title
%%score { ( 1 4 ) | ( 2 3 ) }
L:1/8
Q:1/4=100
M:4/4
K:F
V:1 treble nm="Grand Piano"
V:4 treble 
V:2 bass 
V:3 bass 
V:1
 [CAc]2 [Ac]2 [CAc]2 [A,F]G | [CA]2 A2 [CA]>G [A,F]2 | [EB]4 z4 | [EG]4 [Ec]2[K:bass] C,,2 | %4
w: E.~S.~Lorenz * * * *||||
 [CAc]2 [Ac]2 [CAc]2 [A,F]G | [CA]2 A2 [CA]>G [A,F]2 | [B,DG]4 [G,CE]4 | [A,CF]6[K:bass] z2 | %8
w: ||||
 [GB]2 [GB]2 [GB]>A [EG]2 | [Ac]2 [Ac]2 [FA]2 z2 | [GB]2 [GB]2 [GB]>A [EG]2 | %11
w: |||
 [Ac]2 [Ac]2 [FA]2 z2 | [Fd]2 [Fd]2 [Fd]>c [DB]2 | [Ac]2 [Ac]2 [Ac]>B [FA]2 | [B,DG]4 [G,CE]4 | %15
w: ||||
 [A,CF]6[K:bass] z2 |] %16
w: |
V:2
 [F,,F,]2 [C,C]2 [F,,F,]2 z B, | [F,,F,]2 [C,C]2 z z/ B,/ C,2 | G,2 C,2 F,2 A,2 | %3
 CB,G,E, [C,G,]2 z2 | [F,,F,]2 [C,C]2 [F,,F,]2 z B, | [F,,F,]2 [C,C]2 z z/ B,/ C,2 | %6
 B,,2 G,,2 C,2 C,,2 | [F,,C,]2 F,2 F,,2 z2 | C,,2 E,,2 z z/ F/ C,2 | F,,2 A,,2 C,2 F,2 | %10
 C,,2 E,,2 z z/ F/ C,2 | F,,2 A,,2 C,2 F,2 | B,,2 D,2 z z/ E/ B,2 | F,,2 A,,2 z z/ G/ F,2 | %14
 B,,2 G,,2 C,2 C,,2 | [F,,C,]2 F,2 F,,2 z2 |] %16
V:3
 z4 z2 C,2 | z4 [F,,F,]2 z2 | x8 | x8 | z4 z2 C,2 | z4 [F,,F,]2 z2 | x8 | x8 | z4 G,,2 z2 | x8 | %10
 z4 G,,2 z2 | x8 | z4 F,2 z2 | z4 C,2 z2 | x8 | x8 |] %16
V:4
 x8 | x8 | C2 z2 [CFA]2 [CF]2 | x6[K:bass] x2 | x8 | x8 | x8 | z4[K:bass] C,2 z2 | x8 | x8 | x8 | %11
 x8 | x8 | x8 | x8 | z4[K:bass] C,2 z2 |] %16

